!!!Xfilter: transpose -t P5
!!!OTL: 1392. Der unerbittliche Hauptmann.
!!!ODT: 1828
!!!ARE: Europa, Mitteleuropa, Deutschland
!!!SCT: E1392A
!!!TXL: @@DE
!!!YEM: Copyright 1995, estate of Helmut Schaffrath.
**kern	**text
*ICvox	*
*M2/4	*
*k[f#]	*
*G:	*
!LO:TX:a:t=Jn Holtei's Lenore. 1828.	!
!LO:TX:a:t=c) Aelteſte Lesart.	!
{8d	O
=1	=1
4g	Straß-
8b	-burg,
8b	o
=2	=2
4a	Straß-
8cc}	-burg,
{8cc	du
=3	=3
8b	wun-
8b	-der-
8dd	-ſchö-
8b	-ne
=4	=4
4a	Stadt,
8r}	.
{8d	O
=5	=5
4g	Straß-
8b	-burg,
8b	o
=6	=6
4a	Straß-
8cc}	-burg,
{8cc	du
=7	=7
8b	wun-
8b	-der-
8dd	-ſchö-
8b	-ne
=8	=8
4a	Stadt,
8r}	.
{8d	da-
=9	=9
8cc	-rin-
8cc	-nen
8cc	liegt
8cc	be-
=10	=10
8bL	-gra-
8ddJ	.
8b}	-ben
{8g	ſo
=11	=11
8a	man-
16ccL	-ni-
16bJ	.
8a	-cher
8f#	Sol-
=12	=12
8g/L	-dat,
8b	.
8ddJ}	.
{8d	da-
=13	=13
8cc	-rin-
8cc	-nen
8cc	liegt
8cc	be-
=14	=14
8bL	-gra-
8ddJ	.
8b}	-ben
{8g	ſo
=15	=15
8a	man-
16ccL	-ni-
16bJ	.
8a	-cher
8f#	Sol-
=16	=16
4g	-dat.
8r}	.
==	==
!!!AGN: Staende -, Soldaten - Lied
!!!ONB: ESAC (Essen Associative Code) Database: ERK3
!!!AMT: simple duple
!!!AIN: vox
!!!EED: Helmut Schaffrath
!!!EEV: 1.0
!!!GTL: Staendelieder (Berufslieder). 1. Soldaten- und Kriegslieder. Soldatenlieder seit dem 30jaehr. Kriege.
!!!URL-scan: https://rosdok.uni-rostock.de/mcrviewer/recordIdentifier/rosdok_ppn745177999/iview2/phys_0262.iview2?x=-101.51655504651899&y=95.42377723718528&scale=0.5870222003877487&rotation=0&layout=singlePageLayout
!!!ENC: Anna Maria Matuszewska
!!!EEV: 2024/12/30
*-	*-
